icons/monitor-macB.svg

<svg width="24" height="24" viewBox="0 0 24 24" fill="none" xmlns="http://www.w3.org/2000/svg">
<path d="M15.4 19.7C15.4 20.1 15.1 20.5 14.7 20.5H9.30001C8.90001 20.5 8.50001 20.1 8.60001 19.7L9.00001 16.5H15L15.4 19.7Z" fill="black"/>
<path fill-rule="evenodd" clip-rule="evenodd" d="M8.33789 15.75H15.6621L16.15 19.6533V19.7C16.15 20.0798 16.0107 20.4487 15.7761 20.7301C15.5384 21.0155 15.1652 21.25 14.7 21.25H9.29997C8.85944 21.25 8.46731 21.0379 8.20961 20.7568C7.95816 20.4825 7.76052 20.0546 7.86022 19.5714L8.33789 15.75ZM9.66206 17.25L9.34956 19.75H14.6365C14.6386 19.7457 14.6408 19.7408 14.6427 19.7356C14.6445 19.7307 14.6458 19.7262 14.6469 19.722L14.3379 17.25H9.66206Z" fill="black"/>
<path fill-rule="evenodd" clip-rule="evenodd" d="M2.25 12.55H21.75V14.7C21.75 16.1428 20.5851 17.15 19.3 17.15H4.7C3.25723 17.15 2.25 15.9851 2.25 14.7V12.55ZM3.75 14.05V14.7C3.75 15.215 4.14277 15.65 4.7 15.65H19.3C19.8149 15.65 20.25 15.2573 20.25 14.7V14.05H3.75Z" fill="black"/>
<path d="M21 5.2V13.3H3V5.2C3 4.3 3.8 3.5 4.7 3.5H19.2C20.2 3.5 21 4.2 21 5.2Z" fill="black"/>
<path fill-rule="evenodd" clip-rule="evenodd" d="M4.7 4.25C4.21421 4.25 3.75 4.71421 3.75 5.2V12.55H20.25V5.2C20.25 4.66961 19.8434 4.25 19.2 4.25H4.7ZM2.25 5.2C2.25 3.88579 3.38579 2.75 4.7 2.75H19.2C20.5566 2.75 21.75 3.73039 21.75 5.2V14.05H2.25V5.2Z" fill="black"/>
</svg>

<svg xmlns="http://www.w3.org/2000/svg" fill="none" viewBox="0 0 24 24">
  <path fill="#000" d="M15.4 19.7c0 .4-.3.8-.7.8H9.3c-.4 0-.8-.4-.7-.8l.4-3.2h6l.4 3.2Z"/>
  <path fill="#000" fill-rule="evenodd" d="M8.338 15.75h7.324l.488 3.903v.047c0 .38-.14.749-.374 1.03-.238.285-.61.52-1.076.52H9.3a1.5 1.5 0 0 1-1.09-.493c-.252-.274-.45-.702-.35-1.186l.478-3.821Zm1.324 1.5-.312 2.5h5.287a.152.152 0 0 0 .01-.028l-.31-2.472H9.663Z" clip-rule="evenodd"/>
  <path fill="#000" fill-rule="evenodd" d="M2.25 12.55h19.5v2.15c0 1.443-1.165 2.45-2.45 2.45H4.7c-1.443 0-2.45-1.165-2.45-2.45v-2.15Zm1.5 1.5v.65c0 .515.393.95.95.95h14.6c.515 0 .95-.393.95-.95v-.65H3.75Z" clip-rule="evenodd"/>
  <path fill="#000" d="M21 5.2v8.1H3V5.2c0-.9.8-1.7 1.7-1.7h14.5c1 0 1.8.7 1.8 1.7Z"/>
  <path fill="#000" fill-rule="evenodd" d="M4.7 4.25c-.486 0-.95.464-.95.95v7.35h16.5V5.2c0-.53-.407-.95-1.05-.95H4.7Zm-2.45.95c0-1.314 1.136-2.45 2.45-2.45h14.5c1.357 0 2.55.98 2.55 2.45v8.85H2.25V5.2Z" clip-rule="evenodd"/>
</svg>
